X: 1
T:Paddy MacGinty's Goat
M:C|
L:1/8
Q:80
C:
S:Hornpipe
K:HP
{gef}e3/4d/4|: |
{gcd}c{e}c3/4B/4{g}A3/4{d}A/4{e}A3/4B/4|
{gcd}c3/4B/4{g}c3/4d/4{gef}e{A}e3/4c/4|  !
{Gdc}d{gde}d3/4c/4{g}B3/4{d}B/4{e}B3/4c/4|
{gde}d3/4c/4{g}d3/4e/4{gfg}f{g}e3/4d/4| |
{gcd}c{e}c3/4B/4{g}A3/4{d}A/4{e}A3/4B/4|  !
{gcd}c3/4B/4{g}c3/4d/4{gef}e{A}e3/4c/4|
{Gdc}d{A}d3/4{g}c/4{gBd}B{gef}e3/4d/4|
{g}c3/4{d}B/4{e}A3/4{gAGAG}A2:|  !
e|
{ag}a{g}a3/4f/4{gef}e{A}e3/4f/4|
a3/4g/4a3/4f/4{gef}e3/2f/2|
{gf}g{f}g3/4f/4{gef}e3/4e/4{A}e3/4f/4|  !
{gf}g/2a/4g3/4f/4{gef}e2| |
{g}f3/4A/4{g}d3/4f/4{gef}e3/4c/4{A}c3/4e/4|
{gde}d3/4c/4{g}d/4e3/4{gcd}c{gef}e3/4c/4|  !
{Gdc}d{A}d3/4{g}c/4{gBd}B{gef}e3/4d/4|
{g}c3/4{d}B/4{e}A3/4{gAGAG}A2:|
